(G-CODE GENERATED BY FLATCAM - www.flatcam.org 2018)

(Name: current_sensor_board.cmp_iso_cnc)
(Type: G-code from Geometry)
(Units:  in)

(TOOL DIAMETER: 0.016 in)

(Feedrate: 3.0 in/min)
(Feedrate rapids 3.0 in/min)

(Z_Cut: -0.004 in)
(Z_Move: 0.1 in)
(Z Toolchange: 0.787402 in)
(Z End 2.0 in)
(Steps per circle: 64)
(Postprocessor Geometry: default)
(Spindle Speed: None RPM)

(Created on Wednesday, 24 October 2018 at 12:35)


G20
G90
G94
G01 F3.00
G00 Z0.1000
M03
G4 P1
G00 X0.0460 Y0.3580
G01 F3.00
G01 Z-0.0040
G01 F3.00
G01 X0.0460 Y0.0578
G01 X0.0469 Y0.0534
G01 X0.0490 Y0.0501
G01 X0.0523 Y0.0474
G01 X0.0560 Y0.0462
G01 X2.1070 Y0.0460
G01 X2.1120 Y0.0471
G01 X2.1160 Y0.0501
G01 X2.1182 Y0.0538
G01 X2.1190 Y0.0580
G01 X2.1190 Y2.6696
G01 X2.1179 Y2.6746
G01 X2.1149 Y2.6786
G01 X2.1112 Y2.6808
G01 X2.1070 Y2.6816
G01 X1.3330 Y2.6816
G01 X1.3270 Y2.6800
G01 X1.3269 Y2.7202
G01 X1.3249 Y2.7244
G01 X1.3217 Y2.7265
G01 X1.2186 Y2.7270
G01 X1.2149 Y2.7259
G01 X1.2126 Y2.7238
G01 X1.2110 Y2.7194
G01 X1.2110 Y2.6800
G01 X1.2050 Y2.6816
G01 X1.1993 Y2.6802
G01 X1.1948 Y2.6759
G01 X1.1930 Y2.6700
G01 X1.1930 Y2.2493
G01 X1.1817 Y2.2221
G01 X1.1680 Y2.2082
G01 X1.1660 Y2.2048
G01 X1.1652 Y2.2010
G01 X1.1652 Y1.4934
G01 X1.1668 Y1.4876
G01 X1.1712 Y1.4832
G01 X1.1761 Y1.4816
G01 X1.1858 Y1.4816
G01 X1.1858 Y1.4656
G01 X1.1663 Y1.4656
G01 X1.1634 Y1.4649
G01 X1.1605 Y1.4656
G01 X1.1492 Y1.4656
G01 X1.1492 Y2.2146
G01 X1.1600 Y2.2230
G01 X1.1675 Y2.2321
G01 X1.1724 Y2.2414
G01 X1.1744 Y2.2468
G01 X1.1768 Y2.2587
G01 X1.1770 Y2.7194
G01 X1.1762 Y2.7224
G01 X1.1744 Y2.7249
G01 X1.1694 Y2.7270
G01 X1.0686 Y2.7270
G01 X1.0656 Y2.7262
G01 X1.0631 Y2.7244
G01 X1.0615 Y2.7217
G01 X1.0610 Y2.7190
G01 X1.0613 Y2.2583
G01 X1.0634 Y2.2475
G01 X1.0654 Y2.2418
G01 X1.0705 Y2.2321
G01 X1.0741 Y2.2272
G01 X1.0819 Y2.2194
G01 X1.0868 Y2.2158
G01 X1.0920 Y2.2126
G01 X1.1012 Y2.2088
G01 X1.1013 Y1.4520
G01 X1.1039 Y1.4430
G01 X1.1085 Y1.4368
G01 X1.1161 Y1.4318
G01 X1.1252 Y1.4300
G01 X1.1331 Y1.4221
G01 X1.1331 Y1.3993
G01 X1.1352 Y1.3943
G01 X1.1400 Y1.3918
G01 X1.1582 Y1.3917
G01 X1.1582 Y1.3887
G01 X1.1275 Y1.3580
G01 X1.0114 Y1.3580
G01 X1.0114 Y1.3999
G01 X1.0102 Y1.4036
G01 X1.0075 Y1.4063
G01 X1.0034 Y1.4075
G01 X0.9246 Y1.4075
G01 X0.9212 Y1.4067
G01 X0.9178 Y1.4036
G01 X0.9166 Y1.3999
G01 X0.9166 Y1.3400
G01 X0.9174 Y1.3370
G01 X0.9193 Y1.3345
G01 X0.9219 Y1.3329
G01 X0.9258 Y1.3324
G01 X0.9158 Y1.3238
G01 X0.8095 Y1.2175
G01 X0.8052 Y1.2116
G01 X0.8028 Y1.2034
G01 X0.8026 Y0.6652
G01 X0.8037 Y0.6578
G01 X0.8078 Y0.6503
G01 X0.8078 Y0.6412
G01 X0.8085 Y0.6381
G01 X0.8110 Y0.6351
G01 X0.8146 Y0.6337
G01 X0.8374 Y0.6336
G01 X0.8422 Y0.6351
G01 X0.8450 Y0.6389
G01 X0.8454 Y0.6503
G01 X0.8488 Y0.6560
G01 X0.8505 Y0.6632
G01 X0.8506 Y0.7400
G01 X1.0163 Y0.7400
G01 X1.0800 Y0.6762
G01 X1.0457 Y0.6417
G01 X1.0427 Y0.6372
G01 X1.0405 Y0.6313
G01 X1.0400 Y0.6262
G01 X1.0400 Y0.5016
G01 X1.0417 Y0.4930
G01 X1.0454 Y0.4866
G01 X1.0843 Y0.4476
G01 X1.0747 Y0.4380
G01 X0.9640 Y0.4380
G01 X0.9574 Y0.4371
G01 X0.9527 Y0.4352
G01 X0.9485 Y0.4323
G01 X0.9183 Y0.4022
G01 X0.9135 Y0.3951
G01 X0.9116 Y0.3875
G01 X0.9115 Y0.3124
G01 X0.9090 Y0.3098
G01 X0.9079 Y0.3057
G01 X0.9079 Y0.2620
G01 X0.9094 Y0.2576
G01 X0.9124 Y0.2551
G01 X0.9155 Y0.2544
G01 X0.9556 Y0.2544
G01 X0.9593 Y0.2555
G01 X0.9625 Y0.2589
G01 X0.9632 Y0.2623
G01 X0.9632 Y0.3060
G01 X0.9621 Y0.3098
G01 X0.9595 Y0.3124
G01 X0.9595 Y0.3756
G01 X0.9739 Y0.3900
G01 X1.0789 Y0.3902
G01 X1.0854 Y0.3918
G01 X1.0914 Y0.3954
G01 X1.0962 Y0.4007
G01 X1.0990 Y0.4064
G01 X1.1353 Y0.4065
G01 X1.1388 Y0.4080
G01 X1.1413 Y0.4110
G01 X1.1421 Y0.4144
G01 X1.1421 Y0.4892
G01 X1.1413 Y0.4926
G01 X1.1388 Y0.4956
G01 X1.1353 Y0.4971
G01 X1.1026 Y0.4972
G01 X1.0880 Y0.5117
G01 X1.0880 Y0.6163
G01 X1.1026 Y0.6308
G01 X1.1353 Y0.6309
G01 X1.1382 Y0.6319
G01 X1.1409 Y0.6347
G01 X1.1421 Y0.6388
G01 X1.1421 Y0.7140
G01 X1.1400 Y0.7190
G01 X1.1353 Y0.7215
G01 X1.1026 Y0.7216
G01 X1.0430 Y0.7811
G01 X1.0379 Y0.7850
G01 X1.0328 Y0.7871
G01 X1.0262 Y0.7880
G01 X0.8506 Y0.7880
G01 X0.8506 Y1.1907
G01 X0.9490 Y1.2892
G01 X0.9737 Y1.3100
G01 X1.1290 Y1.3100
G01 X1.1356 Y1.3109
G01 X1.1407 Y1.3130
G01 X1.1462 Y1.3173
G01 X1.1512 Y1.3248
G01 X1.1529 Y1.3325
G01 X1.1858 Y1.3653
G01 X1.1858 Y1.2963
G01 X1.1663 Y1.2963
G01 X1.1634 Y1.2956
G01 X1.1605 Y1.2963
G01 X1.1411 Y1.2963
G01 X1.1370 Y1.2952
G01 X1.1347 Y1.2931
G01 X1.1332 Y1.2895
G01 X1.1331 Y1.2754
G01 X1.1314 Y1.2754
G01 X1.1252 Y1.2785
G01 X1.1194 Y1.2794
G01 X1.1132 Y1.2784
G01 X1.1070 Y1.2751
G01 X1.0347 Y1.2030
G01 X1.0315 Y1.1988
G01 X1.0299 Y1.1948
G01 X1.0290 Y1.1890
G01 X1.0290 Y0.8640
G01 X1.0300 Y0.8578
G01 X1.0322 Y0.8532
G01 X1.0347 Y0.8500
G01 X1.1460 Y0.7387
G01 X1.1461 Y0.5622
G01 X1.1474 Y0.5571
G01 X1.1503 Y0.5523
G01 X1.1960 Y0.5065
G01 X1.1960 Y0.4972
G01 X1.1920 Y0.4970
G01 X1.1892 Y0.4956
G01 X1.1871 Y0.4933
G01 X1.1860 Y0.4904
G01 X1.1862 Y0.4125
G01 X1.1885 Y0.4085
G01 X1.1927 Y0.4065
G01 X1.2341 Y0.4064
G01 X1.2375 Y0.4072
G01 X1.2409 Y0.4103
G01 X1.2421 Y0.4140
G01 X1.2416 Y0.4919
G01 X1.2382 Y0.4961
G01 X1.2353 Y0.4971
G01 X1.2320 Y0.4972
G01 X1.2319 Y0.5162
G01 X1.2306 Y0.5209
G01 X1.2282 Y0.5251
G01 X1.1820 Y0.5715
G01 X1.1820 Y0.7403
G01 X1.1835 Y0.7447
G01 X1.1840 Y0.7490
G01 X1.1826 Y0.7563
G01 X1.1781 Y0.7631
G01 X1.0690 Y0.8723
G01 X1.0690 Y1.1807
G01 X1.1317 Y1.2434
G01 X1.1331 Y1.2434
G01 X1.1334 Y1.2285
G01 X1.1364 Y1.2240
G01 X1.1407 Y1.2224
G01 X1.1581 Y1.2224
G01 X1.1581 Y1.2077
G01 X1.1566 Y1.2033
G01 X1.1561 Y1.1990
G01 X1.1562 Y0.8346
G01 X1.1576 Y0.8293
G01 X1.1609 Y0.8239
G01 X1.1960 Y0.7887
G01 X1.1960 Y0.7216
G01 X1.1920 Y0.7214
G01 X1.1892 Y0.7200
G01 X1.1867 Y0.7170
G01 X1.1859 Y0.7140
G01 X1.1864 Y0.6361
G01 X1.1885 Y0.6329
G01 X1.1927 Y0.6309
G01 X1.2360 Y0.6310
G01 X1.2405 Y0.6340
G01 X1.2421 Y0.6384
G01 X1.2421 Y0.7136
G01 X1.2413 Y0.7170
G01 X1.2388 Y0.7200
G01 X1.2360 Y0.7214
G01 X1.2320 Y0.7216
G01 X1.2320 Y0.7903
G01 X1.2339 Y0.7966
G01 X1.2336 Y0.8029
G01 X1.2318 Y0.8081
G01 X1.2292 Y0.8120
G01 X1.1961 Y0.8452
G01 X1.1961 Y1.1990
G01 X1.1956 Y1.2033
G01 X1.1941 Y1.2077
G01 X1.1941 Y1.2224
G01 X1.2117 Y1.2224
G01 X1.2146 Y1.2231
G01 X1.2175 Y1.2224
G01 X1.2369 Y1.2224
G01 X1.2398 Y1.2230
G01 X1.2700 Y1.1927
G01 X1.2700 Y0.9288
G01 X1.2710 Y0.9220
G01 X1.2743 Y0.9153
G01 X1.3946 Y0.7945
G01 X1.4020 Y0.7894
G01 X1.4114 Y0.7874
G01 X1.5534 Y0.7874
G01 X1.5556 Y0.7852
G01 X1.5554 Y0.6381
G01 X1.4684 Y0.5511
G01 X1.4616 Y0.5410
G01 X1.4576 Y0.5312
G01 X1.4560 Y0.5253
G01 X1.4549 Y0.5139
G01 X1.4549 Y0.2272
G01 X1.4573 Y0.2156
G01 X1.4592 Y0.2103
G01 X1.4642 Y0.2009
G01 X1.4681 Y0.1957
G01 X1.4758 Y0.1880
G01 X1.4850 Y0.1819
G01 X1.4910 Y0.1790
G01 X1.4912 Y0.1671
G01 X1.4926 Y0.1642
G01 X1.4956 Y0.1618
G01 X1.4990 Y0.1610
G01 X1.5990 Y0.1610
G01 X1.6031 Y0.1621
G01 X1.6059 Y0.1649
G01 X1.6070 Y0.1690
G01 X1.6070 Y0.3694
G01 X1.6054 Y0.3738
G01 X1.6009 Y0.3768
G01 X1.5708 Y0.3770
G01 X1.5709 Y0.4898
G01 X1.6545 Y0.5730
G01 X1.6616 Y0.5817
G01 X1.6671 Y0.5921
G01 X1.6703 Y0.6026
G01 X1.6714 Y0.6137
G01 X1.6716 Y0.7554
G01 X1.6829 Y0.7597
G01 X1.6922 Y0.7655
G01 X1.6968 Y0.7695
G01 X1.8414 Y0.9093
G01 X1.8483 Y0.9192
G01 X1.8529 Y0.9303
G01 X1.8552 Y0.9413
G01 X1.8555 Y0.9603
G01 X1.8782 Y0.9604
G01 X1.8811 Y0.9615
G01 X1.8834 Y0.9636
G01 X1.8850 Y0.9683
G01 X1.8845 Y1.0419
G01 X1.8824 Y1.0451
G01 X1.8782 Y1.0471
G01 X1.8358 Y1.0472
G01 X1.8293 Y1.0522
G01 X1.8193 Y1.0575
G01 X1.8088 Y1.0607
G01 X1.7978 Y1.0618
G01 X1.7914 Y1.0615
G01 X1.7806 Y1.0593
G01 X1.7701 Y1.0549
G01 X1.7590 Y1.0472
G01 X1.7506 Y1.0472
G01 X1.7469 Y1.0461
G01 X1.7446 Y1.0440
G01 X1.7431 Y1.0404
G01 X1.7430 Y1.0237
G01 X1.7397 Y1.0094
G01 X1.7394 Y0.9718
G01 X1.6719 Y0.9067
G01 X1.6720 Y0.9603
G01 X1.6782 Y0.9604
G01 X1.6811 Y0.9615
G01 X1.6839 Y0.9642
G01 X1.6850 Y0.9679
G01 X1.6850 Y1.0396
G01 X1.6834 Y1.0440
G01 X1.6804 Y1.0464
G01 X1.6774 Y1.0472
G01 X1.6524 Y1.0472
G01 X1.6460 Y1.0522
G01 X1.6359 Y1.0575
G01 X1.6254 Y1.0607
G01 X1.6141 Y1.0618
G01 X1.6028 Y1.0607
G01 X1.5922 Y1.0575
G01 X1.5822 Y1.0523
G01 X1.5756 Y1.0472
G01 X1.5506 Y1.0472
G01 X1.5462 Y1.0456
G01 X1.5438 Y1.0426
G01 X1.5430 Y1.0396
G01 X1.5431 Y0.9672
G01 X1.5446 Y0.9636
G01 X1.5476 Y0.9611
G01 X1.5559 Y0.9603
G01 X1.5559 Y0.9491
G01 X1.4850 Y1.0199
G01 X1.4849 Y1.0404
G01 X1.4834 Y1.0440
G01 X1.4804 Y1.0464
G01 X1.4774 Y1.0472
G01 X1.4577 Y1.0472
G01 X1.4488 Y1.0546
G01 X1.4388 Y1.0599
G01 X1.4279 Y1.0632
G01 X1.4166 Y1.0643
G01 X1.4052 Y1.0632
G01 X1.3944 Y1.0599
G01 X1.3843 Y1.0546
G01 X1.3754 Y1.0472
G01 X1.3506 Y1.0472
G01 X1.3476 Y1.0464
G01 X1.3441 Y1.0433
G01 X1.3430 Y1.0396
G01 X1.3430 Y0.9683
G01 X1.3446 Y0.9636
G01 X1.3476 Y0.9611
G01 X1.3506 Y0.9603
G01 X1.3805 Y0.9603
G01 X1.5054 Y0.8354
G01 X1.4215 Y0.8354
G01 X1.3180 Y0.9389
G01 X1.3175 Y1.1974
G01 X1.3152 Y1.2041
G01 X1.3107 Y1.2100
G01 X1.3032 Y1.2149
G01 X1.2940 Y1.2168
G01 X1.2449 Y1.2659
G01 X1.2449 Y1.2887
G01 X1.2441 Y1.2917
G01 X1.2422 Y1.2943
G01 X1.2373 Y1.2963
G01 X1.2178 Y1.2963
G01 X1.2178 Y1.3917
G01 X1.2380 Y1.3918
G01 X1.2428 Y1.3943
G01 X1.2449 Y1.3993
G01 X1.2449 Y1.4271
G01 X1.2490 Y1.4312
G01 X1.2560 Y1.4323
G01 X1.2627 Y1.4355
G01 X1.2676 Y1.4400
G01 X1.2713 Y1.4464
G01 X1.2730 Y1.4550
G01 X1.2730 Y1.5391
G01 X1.4810 Y1.7470
G01 X1.4811 Y1.7230
G01 X1.4825 Y1.7162
G01 X1.4859 Y1.7089
G01 X1.4859 Y1.6884
G01 X1.4880 Y1.6834
G01 X1.4905 Y1.6816
G01 X1.4935 Y1.6808
G01 X1.5341 Y1.6808
G01 X1.5375 Y1.6816
G01 X1.5400 Y1.6834
G01 X1.5418 Y1.6869
G01 X1.5421 Y1.7089
G01 X1.5455 Y1.7162
G01 X1.5469 Y1.7230
G01 X1.5470 Y1.7663
G01 X1.5547 Y1.7727
G01 X1.5650 Y1.7830
G01 X1.5730 Y1.7730
G01 X1.5810 Y1.7663
G01 X1.5811 Y1.7230
G01 X1.5825 Y1.7162
G01 X1.5859 Y1.7089
G01 X1.5859 Y1.6884
G01 X1.5875 Y1.6840
G01 X1.5905 Y1.6816
G01 X1.5935 Y1.6808
G01 X1.6353 Y1.6809
G01 X1.6395 Y1.6829
G01 X1.6418 Y1.6869
G01 X1.6421 Y1.7089
G01 X1.6455 Y1.7162
G01 X1.6468 Y1.7226
G01 X1.6470 Y1.7663
G01 X1.6550 Y1.7730
G01 X1.6630 Y1.7830
G01 X1.6733 Y1.7727
G01 X1.6810 Y1.7663
G01 X1.6811 Y1.7230
G01 X1.6825 Y1.7162
G01 X1.6859 Y1.7089
G01 X1.6859 Y1.6884
G01 X1.6875 Y1.6840
G01 X1.6905 Y1.6816
G01 X1.6935 Y1.6808
G01 X1.7360 Y1.6810
G01 X1.7395 Y1.6829
G01 X1.7416 Y1.6861
G01 X1.7421 Y1.7055
G01 X1.7468 Y1.7136
G01 X1.7492 Y1.7226
G01 X1.7492 Y1.7298
G01 X1.7470 Y1.7384
G01 X1.7470 Y1.7663
G01 X1.7586 Y1.7769
G01 X1.7650 Y1.7863
G01 X1.7695 Y1.7972
G01 X1.7717 Y1.8083
G01 X1.7717 Y1.8201
G01 X1.7708 Y1.8257
G01 X1.7677 Y1.8358
G01 X1.7622 Y1.8462
G01 X1.7541 Y1.8560
G01 X1.9060 Y1.8560
G01 X1.9060 Y0.7320
G01 X1.6713 Y0.5147
G01 X1.6636 Y0.5060
G01 X1.6573 Y0.4948
G01 X1.6540 Y0.4842
G01 X1.6530 Y0.4778
G01 X1.6532 Y0.3770
G01 X1.6321 Y0.3768
G01 X1.6281 Y0.3744
G01 X1.6261 Y0.3702
G01 X1.6260 Y0.1690
G01 X1.6271 Y0.1649
G01 X1.6299 Y0.1621
G01 X1.6336 Y0.1610
G01 X1.7340 Y0.1610
G01 X1.7381 Y0.1621
G01 X1.7409 Y0.1649
G01 X1.7420 Y0.1686
G01 X1.7420 Y0.2636
G01 X1.7527 Y0.2721
G01 X1.7601 Y0.2812
G01 X1.7651 Y0.2906
G01 X1.7670 Y0.2960
G01 X1.7693 Y0.3075
G01 X1.7689 Y0.4469
G01 X2.0036 Y0.6642
G01 X2.0110 Y0.6727
G01 X2.0145 Y0.6780
G01 X2.0191 Y0.6886
G01 X2.0209 Y0.6952
G01 X2.0220 Y0.7066
G01 X2.0220 Y1.9140
G01 X2.0209 Y1.9253
G01 X2.0174 Y1.9366
G01 X2.0125 Y1.9459
G01 X2.0089 Y1.9508
G01 X2.0047 Y1.9553
G01 X1.9966 Y1.9620
G01 X1.9858 Y1.9677
G01 X1.9757 Y1.9708
G01 X1.9693 Y1.9718
G01 X1.6140 Y1.9720
G01 X1.6027 Y1.9709
G01 X1.5914 Y1.9674
G01 X1.5818 Y1.9622
G01 X1.5731 Y1.9552
G01 X1.4689 Y1.8505
G01 X1.4630 Y1.8417
G01 X1.4606 Y1.8366
G01 X1.4570 Y1.8249
G01 X1.4560 Y1.8144
G01 X1.4563 Y1.8083
G01 X1.4597 Y1.7937
G01 X1.2293 Y1.5627
G01 X1.2260 Y1.5560
G01 X1.2250 Y1.5494
G01 X1.2250 Y1.4656
G01 X1.2178 Y1.4656
G01 X1.2178 Y1.5744
G01 X1.4370 Y1.7936
G01 X1.4391 Y1.7969
G01 X1.4399 Y1.8004
G01 X1.4400 Y1.8287
G01 X1.4513 Y1.8559
G01 X1.5721 Y1.9767
G01 X1.5993 Y1.9880
G01 X1.9787 Y1.9880
G01 X2.0060 Y1.9767
G01 X2.0267 Y1.9559
G01 X2.0380 Y1.9287
G01 X2.0380 Y0.7220
G01 X2.0385 Y0.7186
G01 X2.0380 Y0.6918
G01 X2.0374 Y0.6891
G01 X2.0251 Y0.6624
G01 X2.0059 Y0.6438
G01 X2.0030 Y0.6419
G01 X1.7887 Y0.4435
G01 X1.7862 Y0.4402
G01 X1.7849 Y0.4346
G01 X1.7856 Y0.2985
G01 X1.7744 Y0.2713
G01 X1.7607 Y0.2573
G01 X1.7582 Y0.2521
G01 X1.7580 Y0.1642
G01 X1.7543 Y0.1554
G01 X1.7476 Y0.1487
G01 X1.7388 Y0.1450
G01 X1.6292 Y0.1450
G01 X1.6204 Y0.1486
G01 X1.6165 Y0.1493
G01 X1.6126 Y0.1486
G01 X1.6038 Y0.1450
G01 X1.4942 Y0.1450
G01 X1.4854 Y0.1487
G01 X1.4787 Y0.1554
G01 X1.4730 Y0.1678
G01 X1.4499 Y0.1909
G01 X1.4387 Y0.2182
G01 X1.4390 Y0.5287
G01 X1.4502 Y0.5559
G01 X1.5359 Y0.6413
G01 X1.5385 Y0.6451
G01 X1.5394 Y0.6497
G01 X1.5394 Y0.7618
G01 X1.5380 Y0.7654
G01 X1.5355 Y0.7685
G01 X1.5322 Y0.7705
G01 X1.5288 Y0.7714
G01 X1.4036 Y0.7714
G01 X1.3889 Y0.7775
G01 X1.2601 Y0.9063
G01 X1.2540 Y0.9210
G01 X1.2539 Y1.1823
G01 X1.2531 Y1.1857
G01 X1.2513 Y1.1887
G01 X1.2372 Y1.2029
G01 X1.2337 Y1.2053
G01 X1.2299 Y1.2064
G01 X1.2225 Y1.2063
G01 X1.2178 Y1.2046
G01 X1.2137 Y1.2004
G01 X1.2121 Y1.1952
G01 X1.2121 Y0.8560
G01 X1.2130 Y0.8522
G01 X1.2151 Y0.8489
G01 X1.2445 Y0.8194
G01 X1.2500 Y0.8062
G01 X1.2500 Y0.7918
G01 X1.2480 Y0.7848
G01 X1.2480 Y0.7382
G01 X1.2494 Y0.7329
G01 X1.2544 Y0.7272
G01 X1.2581 Y0.7184
G01 X1.2581 Y0.6340
G01 X1.2544 Y0.6252
G01 X1.2477 Y0.6185
G01 X1.2389 Y0.6148
G01 X1.2088 Y0.6147
G01 X1.2054 Y0.6139
G01 X1.2024 Y0.6121
G01 X1.1996 Y0.6088
G01 X1.1982 Y0.6048
G01 X1.1980 Y0.5829
G01 X1.1989 Y0.5785
G01 X1.2010 Y0.5751
G01 X1.2428 Y0.5333
G01 X1.2480 Y0.5208
G01 X1.2481 Y0.5130
G01 X1.2489 Y0.5096
G01 X1.2544 Y0.5028
G01 X1.2581 Y0.4940
G01 X1.2581 Y0.4096
G01 X1.2544 Y0.4008
G01 X1.2477 Y0.3940
G01 X1.2389 Y0.3904
G01 X1.1891 Y0.3904
G01 X1.1803 Y0.3940
G01 X1.1700 Y0.4038
G01 X1.1663 Y0.4052
G01 X1.1628 Y0.4053
G01 X1.1567 Y0.4029
G01 X1.1477 Y0.3940
G01 X1.1389 Y0.3904
G01 X1.1107 Y0.3899
G01 X1.1065 Y0.3877
G01 X1.0989 Y0.3801
G01 X1.0842 Y0.3740
G01 X0.9871 Y0.3740
G01 X0.9819 Y0.3726
G01 X0.9780 Y0.3693
G01 X0.9756 Y0.3632
G01 X0.9755 Y0.3413
G01 X0.9766 Y0.3367
G01 X0.9796 Y0.3326
G01 X0.9829 Y0.3306
G01 X0.9868 Y0.3297
G01 X1.0269 Y0.3296
G01 X1.0357 Y0.3260
G01 X1.0425 Y0.3192
G01 X1.0461 Y0.3104
G01 X1.0461 Y0.2576
G01 X1.0425 Y0.2475
G01 X1.0425 Y0.2126
G01 X1.0439 Y0.2074
G01 X1.0493 Y0.2012
G01 X1.0530 Y0.1924
G01 X1.0530 Y0.1356
G01 X1.0493 Y0.1268
G01 X1.0426 Y0.1200
G01 X1.0337 Y0.1164
G01 X0.9769 Y0.1164
G01 X0.9681 Y0.1200
G01 X0.9614 Y0.1268
G01 X0.9578 Y0.1340
G01 X0.9537 Y0.1373
G01 X0.9543 Y0.1404
G01 X0.9543 Y0.1876
G01 X0.9537 Y0.1907
G01 X0.9585 Y0.1949
G01 X0.9622 Y0.2039
G01 X0.9625 Y0.2267
G01 X0.9610 Y0.2320
G01 X0.9571 Y0.2363
G01 X0.9520 Y0.2382
G01 X0.9111 Y0.2384
G01 X0.9023 Y0.2420
G01 X0.8955 Y0.2487
G01 X0.8919 Y0.2576
G01 X0.8919 Y0.3104
G01 X0.8949 Y0.3178
G01 X0.8955 Y0.3215
G01 X0.8955 Y0.3935
G01 X0.9016 Y0.4082
G01 X0.9413 Y0.4479
G01 X0.9560 Y0.4540
G01 X1.0274 Y0.4541
G01 X1.0309 Y0.4549
G01 X1.0342 Y0.4570
G01 X1.0367 Y0.4600
G01 X1.0379 Y0.4633
G01 X1.0382 Y0.4672
G01 X1.0372 Y0.4710
G01 X1.0301 Y0.4791
G01 X1.0240 Y0.4938
G01 X1.0240 Y0.6342
G01 X1.0301 Y0.6489
G01 X1.0497 Y0.6686
G01 X1.0519 Y0.6727
G01 X1.0524 Y0.6774
G01 X1.0514 Y0.6812
G01 X1.0491 Y0.6845
G01 X1.0130 Y0.7206
G01 X1.0074 Y0.7237
G01 X0.9388 Y0.7239
G01 X0.9326 Y0.7215
G01 X0.9289 Y0.7166
G01 X0.9280 Y0.7124
G01 X0.9285 Y0.7085
G01 X0.9300 Y0.7053
G01 X0.9326 Y0.7024
G01 X0.9362 Y0.6936
G01 X0.9362 Y0.6368
G01 X0.9329 Y0.6286
G01 X0.9324 Y0.6252
G01 X0.9334 Y0.6204
G01 X0.9335 Y0.5992
G01 X0.9362 Y0.5912
G01 X0.9362 Y0.5344
G01 X0.9326 Y0.5256
G01 X0.9258 Y0.5188
G01 X0.9170 Y0.5152
G01 X0.8858 Y0.5152
G01 X0.8830 Y0.5163
G01 X0.8830 Y0.5366
G01 X0.8852 Y0.5333
G01 X0.8894 Y0.5313
G01 X0.9122 Y0.5312
G01 X0.9170 Y0.5328
G01 X0.9200 Y0.5372
G01 X0.9202 Y0.5868
G01 X0.9195 Y0.5899
G01 X0.9174 Y0.5925
G01 X0.9171 Y0.6171
G01 X0.9153 Y0.6219
G01 X0.9119 Y0.6261
G01 X0.9072 Y0.6289
G01 X0.9018 Y0.6300
G01 X0.8254 Y0.6300
G01 X0.8216 Y0.6292
G01 X0.8174 Y0.6271
G01 X0.8142 Y0.6242
G01 X0.8120 Y0.6205
G01 X0.8106 Y0.6152
G01 X0.8106 Y0.5925
G01 X0.8085 Y0.5899
G01 X0.8078 Y0.5868
G01 X0.8078 Y0.5695
G01 X0.8026 Y0.5666
G01 X0.7985 Y0.5629
G01 X0.7955 Y0.5579
G01 X0.7941 Y0.5522
G01 X0.7940 Y0.4279
G01 X0.6969 Y0.3308
G01 X0.6938 Y0.3270
G01 X0.6914 Y0.3220
G01 X0.6878 Y0.3219
G01 X0.6849 Y0.3209
G01 X0.6826 Y0.3188
G01 X0.6812 Y0.3159
G01 X0.6811 Y0.1608
G01 X0.6834 Y0.1517
G01 X0.6866 Y0.1457
G01 X0.6909 Y0.1404
G01 X0.6981 Y0.1351
G01 X0.7044 Y0.1324
G01 X0.7112 Y0.1311
G01 X0.7176 Y0.1312
G01 X0.7263 Y0.1334
G01 X0.7323 Y0.1366
G01 X0.7373 Y0.1407
G01 X0.7414 Y0.1457
G01 X0.7446 Y0.1517
G01 X0.7464 Y0.1576
G01 X0.7470 Y0.1638
G01 X0.7470 Y0.3130
G01 X0.8311 Y0.3972
G01 X0.8362 Y0.4048
G01 X0.8380 Y0.4140
G01 X0.8370 Y0.4210
G01 X0.8340 Y0.4273
G01 X0.8340 Y0.5312
G01 X0.8408 Y0.5320
G01 X0.8434 Y0.5338
G01 X0.8450 Y0.5366
G01 X0.8451 Y0.5117
G01 X0.8466 Y0.5064
G01 X0.8500 Y0.5012
G01 X0.8500 Y0.4336
G01 X0.8506 Y0.4301
G01 X0.8540 Y0.4220
G01 X0.8540 Y0.4060
G01 X0.8479 Y0.3913
G01 X0.7665 Y0.3099
G01 X0.7641 Y0.3064
G01 X0.7630 Y0.3015
G01 X0.7630 Y0.1543
G01 X0.7555 Y0.1362
G01 X0.7418 Y0.1225
G01 X0.7237 Y0.1150
G01 X0.7043 Y0.1150
G01 X0.6862 Y0.1225
G01 X0.6713 Y0.1373
G01 X0.6679 Y0.1391
G01 X0.6640 Y0.1397
G01 X0.6601 Y0.1391
G01 X0.6567 Y0.1373
G01 X0.6418 Y0.1225
G01 X0.6237 Y0.1150
G01 X0.6043 Y0.1150
G01 X0.5862 Y0.1225
G01 X0.5725 Y0.1362
G01 X0.5650 Y0.1543
G01 X0.5647 Y0.1836
G01 X0.5628 Y0.1878
G01 X0.5593 Y0.1910
G01 X0.5530 Y0.1928
G01 X0.5495 Y0.1923
G01 X0.5438 Y0.1900
G01 X0.4842 Y0.1900
G01 X0.4754 Y0.1937
G01 X0.4687 Y0.2004
G01 X0.4650 Y0.2092
G01 X0.4650 Y0.3128
G01 X0.4628 Y0.3190
G01 X0.4603 Y0.3215
G01 X0.4572 Y0.3232
G01 X0.4530 Y0.3240
G01 X0.3560 Y0.3240
G01 X0.3358 Y0.3328
G01 X0.3092 Y0.3330
G01 X0.3004 Y0.3367
G01 X0.2937 Y0.3434
G01 X0.2900 Y0.3522
G01 X0.2899 Y0.3596
G01 X0.2886 Y0.3637
G01 X0.2847 Y0.3680
G01 X0.2792 Y0.3699
G01 X0.0572 Y0.3700
G01 X0.0530 Y0.3689
G01 X0.0492 Y0.3662
G01 X0.0469 Y0.3626
G01 X0.0460 Y0.3580
G00 Z0.1000
G00 X0.3136 Y0.3490
G01 F3.00
G01 Z-0.0040
G01 F3.00
G01 X0.3453 Y0.3490
G01 X0.3488 Y0.3454
G01 X0.3530 Y0.3427
G01 X0.3589 Y0.3405
G01 X0.3638 Y0.3400
G01 X0.5900 Y0.3400
G01 X0.5900 Y0.3220
G01 X0.5863 Y0.3215
G01 X0.5836 Y0.3199
G01 X0.5818 Y0.3174
G01 X0.5810 Y0.3144
G01 X0.5810 Y0.1640
G01 X0.5823 Y0.1548
G01 X0.5863 Y0.1460
G01 X0.5909 Y0.1404
G01 X0.5984 Y0.1349
G01 X0.6079 Y0.1316
G01 X0.6172 Y0.1311
G01 X0.6266 Y0.1335
G01 X0.6349 Y0.1385
G01 X0.6417 Y0.1460
G01 X0.6456 Y0.1544
G01 X0.6470 Y0.1638
G01 X0.6470 Y0.3144
G01 X0.6462 Y0.3174
G01 X0.6444 Y0.3199
G01 X0.6417 Y0.3215
G01 X0.6380 Y0.3220
G01 X0.6375 Y0.3687
G01 X0.6340 Y0.3773
G01 X0.6310 Y0.3810
G01 X0.6270 Y0.3842
G01 X0.6210 Y0.3870
G01 X0.6142 Y0.3880
G01 X0.4220 Y0.3880
G01 X0.4218 Y0.4089
G01 X0.4199 Y0.4124
G01 X0.4159 Y0.4148
G01 X0.3128 Y0.4149
G01 X0.3086 Y0.4129
G01 X0.3061 Y0.4082
G01 X0.3060 Y0.3570
G01 X0.3065 Y0.3543
G01 X0.3081 Y0.3516
G01 X0.3106 Y0.3498
G01 X0.3136 Y0.3490
G00 Z0.1000
G00 X0.4886 Y0.2060
G01 F3.00
G01 Z-0.0040
G01 F3.00
G01 X0.5394 Y0.2060
G01 X0.5431 Y0.2071
G01 X0.5462 Y0.2106
G01 X0.5470 Y0.2140
G01 X0.5470 Y0.3144
G01 X0.5459 Y0.3181
G01 X0.5424 Y0.3212
G01 X0.5390 Y0.3220
G01 X0.4886 Y0.3220
G01 X0.4849 Y0.3209
G01 X0.4818 Y0.3174
G01 X0.4810 Y0.3140
G01 X0.4810 Y0.2136
G01 X0.4818 Y0.2106
G01 X0.4836 Y0.2081
G01 X0.4886 Y0.2060
G00 Z0.1000
G00 X0.8447 Y0.5367
G01 F3.00
G01 Z-0.0040
G01 F3.00
G01 X0.8450 Y0.5882
G01 X0.8450 Y0.5882
G01 X0.8447 Y0.5367
G00 Z0.1000
G00 X0.8834 Y0.5368
G01 F3.00
G01 Z-0.0040
G01 F3.00
G01 X0.8825 Y0.5879
G00 Z0.1000
G00 X0.8453 Y0.5878
G01 F3.00
G01 Z-0.0040
G01 F3.00
G01 X0.8478 Y0.5924
G01 X0.8505 Y0.5940
G01 X0.8532 Y0.5944
G01 X0.8768 Y0.5942
G01 X0.8808 Y0.5918
G01 X0.8827 Y0.5878
G01 X0.8854 Y0.5925
G01 X0.8854 Y0.5980
G01 X0.8426 Y0.5980
G01 X0.8426 Y0.5925
G01 X0.8453 Y0.5878
G00 Z0.1000
G00 X0.8902 Y0.6336
G01 F3.00
G01 Z-0.0040
G01 F3.00
G01 X0.9134 Y0.6337
G01 X0.9170 Y0.6351
G01 X0.9198 Y0.6389
G01 X0.9202 Y0.6892
G01 X0.9187 Y0.6936
G01 X0.9149 Y0.6963
G01 X0.8894 Y0.6967
G01 X0.8858 Y0.6952
G01 X0.8830 Y0.6915
G01 X0.8827 Y0.6404
G01 X0.8852 Y0.6356
G01 X0.8902 Y0.6336
G00 Z0.1000
G00 X0.9785 Y0.1949
G01 F3.00
G01 Z-0.0040
G01 F3.00
G01 X0.9753 Y0.1924
G01 X0.9737 Y0.1880
G01 X0.9737 Y0.1400
G01 X0.9758 Y0.1350
G01 X0.9783 Y0.1331
G01 X0.9817 Y0.1324
G01 X1.0294 Y0.1324
G01 X1.0343 Y0.1345
G01 X1.0362 Y0.1370
G01 X1.0370 Y0.1400
G01 X1.0370 Y0.1880
G01 X1.0362 Y0.1910
G01 X1.0337 Y0.1940
G01 X1.0309 Y0.1954
G01 X1.0265 Y0.1956
G01 X1.0265 Y0.2556
G01 X1.0290 Y0.2582
G01 X1.0301 Y0.2620
G01 X1.0301 Y0.3057
G01 X1.0286 Y0.3104
G01 X1.0248 Y0.3132
G01 X0.9824 Y0.3136
G01 X0.9780 Y0.3121
G01 X0.9752 Y0.3084
G01 X0.9748 Y0.2620
G01 X0.9759 Y0.2582
G01 X0.9785 Y0.2556
G01 X0.9785 Y0.1949
G00 Z0.1000
G00 X1.1628 Y1.2272
G01 F3.00
G01 Z-0.0040
G01 F3.00
G01 X1.1633 Y1.2954
G00 Z0.1000
G00 X1.1891 Y1.2921
G01 F3.00
G01 Z-0.0040
G01 F3.00
G01 X1.1890 Y1.2277
G00 Z0.1000
G00 X1.2147 Y1.2285
G01 F3.00
G01 Z-0.0040
G01 F3.00
G01 X1.2145 Y1.2921
G00 Z0.1000
G00 X1.2146 Y1.3975
G01 F3.00
G01 Z-0.0040
G01 F3.00
G01 X1.2145 Y1.4600
G00 Z0.1000
G00 X1.1892 Y1.4602
G01 F3.00
G01 Z-0.0040
G01 F3.00
G01 X1.1890 Y1.3977
G00 Z0.1000
G00 X1.1636 Y1.3955
G01 F3.00
G01 Z-0.0040
G01 F3.00
G01 X1.1632 Y1.4647
G00 Z0.1000
G00 X1.3506 Y1.1808
G01 F3.00
G01 Z-0.0040
G01 F3.00
G01 X1.3756 Y1.1808
G01 X1.3821 Y1.1758
G01 X1.3922 Y1.1705
G01 X1.4027 Y1.1673
G01 X1.4144 Y1.1662
G01 X1.4253 Y1.1673
G01 X1.4358 Y1.1705
G01 X1.4459 Y1.1758
G01 X1.4524 Y1.1808
G01 X1.4782 Y1.1809
G01 X1.4818 Y1.1824
G01 X1.4842 Y1.1854
G01 X1.4850 Y1.1888
G01 X1.4849 Y1.2608
G01 X1.4834 Y1.2644
G01 X1.4804 Y1.2669
G01 X1.4720 Y1.2677
G01 X1.4720 Y1.3778
G01 X1.5124 Y1.4181
G01 X1.5192 Y1.4264
G01 X1.5226 Y1.4320
G01 X1.5267 Y1.4422
G01 X1.5291 Y1.4564
G01 X1.5375 Y1.4572
G01 X1.5400 Y1.4590
G01 X1.5416 Y1.4617
G01 X1.5421 Y1.4845
G01 X1.5456 Y1.4922
G01 X1.5470 Y1.5022
G01 X1.5456 Y1.5114
G01 X1.5421 Y1.5191
G01 X1.5418 Y1.5411
G01 X1.5400 Y1.5446
G01 X1.5375 Y1.5464
G01 X1.5341 Y1.5472
G01 X1.4939 Y1.5472
G01 X1.4892 Y1.5456
G01 X1.4871 Y1.5433
G01 X1.4860 Y1.5404
G01 X1.4859 Y1.5204
G01 X1.4816 Y1.5161
G01 X1.4712 Y1.5170
G01 X1.4599 Y1.5159
G01 X1.4490 Y1.5126
G01 X1.4386 Y1.5070
G01 X1.4302 Y1.5000
G01 X1.3728 Y1.4427
G01 X1.3660 Y1.4344
G01 X1.3628 Y1.4292
G01 X1.3584 Y1.4183
G01 X1.3563 Y1.4079
G01 X1.3560 Y1.4022
G01 X1.3560 Y1.2677
G01 X1.3498 Y1.2676
G01 X1.3469 Y1.2665
G01 X1.3441 Y1.2638
G01 X1.3430 Y1.2601
G01 X1.3430 Y1.1884
G01 X1.3451 Y1.1834
G01 X1.3476 Y1.1816
G01 X1.3506 Y1.1808
G00 Z0.1000
G00 X1.5506 Y1.1808
G01 F3.00
G01 Z-0.0040
G01 F3.00
G01 X1.5756 Y1.1808
G01 X1.5821 Y1.1758
G01 X1.5922 Y1.1705
G01 X1.6027 Y1.1673
G01 X1.6144 Y1.1662
G01 X1.6253 Y1.1673
G01 X1.6358 Y1.1705
G01 X1.6459 Y1.1758
G01 X1.6524 Y1.1808
G01 X1.6789 Y1.1810
G01 X1.6829 Y1.1834
G01 X1.6848 Y1.1869
G01 X1.6849 Y1.2608
G01 X1.6834 Y1.2644
G01 X1.6804 Y1.2669
G01 X1.6720 Y1.2677
G01 X1.6717 Y1.4201
G01 X1.6695 Y1.4308
G01 X1.6650 Y1.4417
G01 X1.6586 Y1.4511
G01 X1.6470 Y1.4617
G01 X1.6468 Y1.5054
G01 X1.6455 Y1.5118
G01 X1.6421 Y1.5191
G01 X1.6418 Y1.5411
G01 X1.6395 Y1.5451
G01 X1.6360 Y1.5470
G01 X1.5935 Y1.5472
G01 X1.5898 Y1.5461
G01 X1.5871 Y1.5433
G01 X1.5859 Y1.5396
G01 X1.5859 Y1.5191
G01 X1.5825 Y1.5118
G01 X1.5811 Y1.5050
G01 X1.5810 Y1.4617
G01 X1.5730 Y1.4550
G01 X1.5658 Y1.4462
G01 X1.5604 Y1.4362
G01 X1.5572 Y1.4257
G01 X1.5560 Y1.4140
G01 X1.5560 Y1.2677
G01 X1.5498 Y1.2676
G01 X1.5469 Y1.2665
G01 X1.5441 Y1.2638
G01 X1.5430 Y1.2601
G01 X1.5430 Y1.1884
G01 X1.5451 Y1.1834
G01 X1.5476 Y1.1816
G01 X1.5506 Y1.1808
G00 Z0.1000
G00 X1.6859 Y1.4939
G01 F3.00
G01 Z-0.0040
G01 F3.00
G01 X1.6859 Y1.4640
G01 X1.6871 Y1.4603
G01 X1.6892 Y1.4580
G01 X1.6920 Y1.4566
G01 X1.7031 Y1.4564
G01 X1.7056 Y1.4436
G01 X1.7096 Y1.4339
G01 X1.7130 Y1.4283
G01 X1.7199 Y1.4200
G01 X1.7531 Y1.3869
G01 X1.7534 Y1.2677
G01 X1.7498 Y1.2676
G01 X1.7469 Y1.2665
G01 X1.7446 Y1.2644
G01 X1.7431 Y1.2608
G01 X1.7430 Y1.1888
G01 X1.7441 Y1.1847
G01 X1.7462 Y1.1824
G01 X1.7498 Y1.1809
G01 X1.7732 Y1.1808
G01 X1.7797 Y1.1757
G01 X1.7898 Y1.1704
G01 X1.8003 Y1.1673
G01 X1.8117 Y1.1662
G01 X1.8230 Y1.1674
G01 X1.8335 Y1.1705
G01 X1.8435 Y1.1759
G01 X1.8499 Y1.1808
G01 X1.8774 Y1.1808
G01 X1.8811 Y1.1819
G01 X1.8839 Y1.1847
G01 X1.8850 Y1.1884
G01 X1.8850 Y1.2601
G01 X1.8834 Y1.2644
G01 X1.8804 Y1.2669
G01 X1.8774 Y1.2677
G01 X1.8694 Y1.2677
G01 X1.8688 Y1.4165
G01 X1.8664 Y1.4284
G01 X1.8644 Y1.4337
G01 X1.8594 Y1.4430
G01 X1.8520 Y1.4521
G01 X1.8018 Y1.5022
G01 X1.7931 Y1.5093
G01 X1.7831 Y1.5146
G01 X1.7722 Y1.5179
G01 X1.7608 Y1.5190
G01 X1.7506 Y1.5180
G01 X1.7421 Y1.5265
G01 X1.7418 Y1.5411
G01 X1.7395 Y1.5451
G01 X1.7360 Y1.5470
G01 X1.6935 Y1.5472
G01 X1.6905 Y1.5464
G01 X1.6880 Y1.5446
G01 X1.6860 Y1.5404
G01 X1.6859 Y1.5158
G01 X1.6840 Y1.5052
G01 X1.6846 Y1.4988
G01 X1.6859 Y1.4939
G00 Z0.1000
G00 X0.3136 Y1.2130
G01 F3.00
G01 Z-0.0040
G01 F3.00
G01 X0.4140 Y1.2130
G01 X0.4181 Y1.2141
G01 X0.4209 Y1.2169
G01 X0.4220 Y1.2206
G01 X0.4220 Y1.2710
G01 X0.4209 Y1.2751
G01 X0.4181 Y1.2779
G01 X0.4144 Y1.2790
G01 X0.3140 Y1.2790
G01 X0.3099 Y1.2779
G01 X0.3071 Y1.2751
G01 X0.3060 Y1.2714
G01 X0.3060 Y1.2206
G01 X0.3068 Y1.2176
G01 X0.3086 Y1.2151
G01 X0.3136 Y1.2130
G00 Z0.1000
G00 X0.0460 Y1.1844
G01 F3.00
G01 Z-0.0040
G01 F3.00
G01 X0.0460 Y0.4390
G01 X0.0476 Y0.4342
G01 X0.0506 Y0.4318
G01 X0.0540 Y0.4310
G01 X0.6240 Y0.4310
G01 X0.6288 Y0.4326
G01 X0.6312 Y0.4356
G01 X0.6320 Y0.4390
G01 X0.6320 Y0.7900
G01 X0.7187 Y0.7905
G01 X0.7253 Y0.7928
G01 X0.7312 Y0.7973
G01 X0.7360 Y0.8045
G01 X0.7379 Y0.8116
G01 X0.7380 Y1.3640
G01 X0.7369 Y1.3713
G01 X0.7328 Y1.3789
G01 X0.7292 Y1.3826
G01 X0.7250 Y1.3853
G01 X0.7191 Y1.3875
G01 X0.7142 Y1.3880
G01 X0.3880 Y1.3880
G01 X0.3880 Y1.3990
G01 X0.4152 Y1.3991
G01 X0.4188 Y1.4006
G01 X0.4212 Y1.4036
G01 X0.4220 Y1.4070
G01 X0.4220 Y1.4574
G01 X0.4212 Y1.4604
G01 X0.4194 Y1.4629
G01 X0.4167 Y1.4645
G01 X0.4140 Y1.4650
G01 X0.3136 Y1.4650
G01 X0.3086 Y1.4629
G01 X0.3061 Y1.4582
G01 X0.3060 Y1.4070
G01 X0.3068 Y1.4036
G01 X0.3092 Y1.4006
G01 X0.3128 Y1.3991
G01 X0.3400 Y1.3990
G01 X0.3400 Y1.3638
G01 X0.3410 Y1.3570
G01 X0.3438 Y1.3510
G01 X0.3470 Y1.3470
G01 X0.3510 Y1.3438
G01 X0.3570 Y1.3410
G01 X0.3640 Y1.3400
G01 X0.6900 Y1.3400
G01 X0.6900 Y0.8380
G01 X0.6320 Y0.8380
G01 X0.6320 Y1.1840
G01 X0.6309 Y1.1881
G01 X0.6281 Y1.1909
G01 X0.6240 Y1.1920
G01 X0.0540 Y1.1920
G01 X0.0513 Y1.1915
G01 X0.0486 Y1.1899
G01 X0.0468 Y1.1874
G01 X0.0460 Y1.1844
G00 Z0.1000
G00 X0.0586 Y1.4760
G01 F3.00
G01 Z-0.0040
G01 F3.00
G01 X0.6240 Y1.4760
G01 X0.6281 Y1.4771
G01 X0.6309 Y1.4799
G01 X0.6320 Y1.4840
G01 X0.6320 Y1.8400
G01 X0.6830 Y1.8400
G01 X0.6830 Y1.4392
G01 X0.6793 Y1.4304
G01 X0.6713 Y1.4217
G01 X0.6699 Y1.4152
G01 X0.6708 Y1.4114
G01 X0.6726 Y1.4084
G01 X0.6752 Y1.4060
G01 X0.6788 Y1.4044
G01 X0.7220 Y1.4040
G01 X0.7367 Y1.3979
G01 X0.7479 Y1.3867
G01 X0.7540 Y1.3720
G01 X0.7540 Y0.8060
G01 X0.7479 Y0.7913
G01 X0.7367 Y0.7801
G01 X0.7220 Y0.7740
G01 X0.6915 Y0.7735
G01 X0.6860 Y0.7699
G01 X0.6832 Y0.7640
G01 X0.6830 Y0.3892
G01 X0.6793 Y0.3804
G01 X0.6726 Y0.3737
G01 X0.6610 Y0.3689
G01 X0.6581 Y0.3670
G01 X0.6551 Y0.3630
G01 X0.6540 Y0.3582
G01 X0.6541 Y0.3407
G01 X0.6560 Y0.3352
G01 X0.6593 Y0.3319
G01 X0.6633 Y0.3302
G01 X0.6676 Y0.3300
G01 X0.6717 Y0.3313
G01 X0.6810 Y0.3376
G01 X0.7745 Y0.4311
G01 X0.7768 Y0.4342
G01 X0.7779 Y0.4380
G01 X0.7780 Y0.5574
G01 X0.7835 Y0.5706
G01 X0.7893 Y0.5766
G01 X0.7914 Y0.5808
G01 X0.7918 Y0.5912
G01 X0.7945 Y0.5992
G01 X0.7946 Y0.6204
G01 X0.7956 Y0.6252
G01 X0.7951 Y0.6286
G01 X0.7918 Y0.6368
G01 X0.7913 Y0.6458
G01 X0.7866 Y0.6572
G01 X0.7866 Y1.2087
G01 X0.7927 Y1.2233
G01 X0.8988 Y1.3299
G01 X0.9006 Y1.3360
G01 X0.9006 Y1.4042
G01 X0.9043 Y1.4131
G01 X0.9110 Y1.4198
G01 X0.9199 Y1.4235
G01 X1.0081 Y1.4235
G01 X1.0170 Y1.4198
G01 X1.0237 Y1.4131
G01 X1.0274 Y1.4042
G01 X1.0274 Y1.3858
G01 X1.0280 Y1.3821
G01 X1.0318 Y1.3767
G01 X1.0374 Y1.3742
G01 X1.1094 Y1.3741
G01 X1.1131 Y1.3752
G01 X1.1163 Y1.3775
G01 X1.1186 Y1.3807
G01 X1.1197 Y1.3844
G01 X1.1195 Y1.3887
G01 X1.1171 Y1.3949
G01 X1.1171 Y1.4072
G01 X1.1157 Y1.4117
G01 X1.1118 Y1.4160
G01 X1.1026 Y1.4201
G01 X1.0913 Y1.4313
G01 X1.0852 Y1.4460
G01 X1.0852 Y2.1903
G01 X1.0843 Y2.1945
G01 X1.0820 Y2.1981
G01 X1.0771 Y2.2013
G01 X1.0563 Y2.2221
G01 X1.0450 Y2.2493
G01 X1.0450 Y2.6700
G01 X1.0432 Y2.6759
G01 X1.0387 Y2.6802
G01 X1.0330 Y2.6816
G01 X1.0270 Y2.6800
G01 X1.0270 Y2.7194
G01 X1.0262 Y2.7224
G01 X1.0238 Y2.7254
G01 X1.0190 Y2.7270
G01 X0.9163 Y2.7265
G01 X0.9131 Y2.7244
G01 X0.9111 Y2.7202
G01 X0.9110 Y2.6800
G01 X0.9050 Y2.6816
G01 X0.0580 Y2.6816
G01 X0.0527 Y2.6804
G01 X0.0485 Y2.6769
G01 X0.0466 Y2.6735
G01 X0.0460 Y2.6696
G01 X0.0460 Y2.3150
G01 X0.0474 Y2.3093
G01 X0.0517 Y2.3048
G01 X0.0580 Y2.3030
G01 X0.2792 Y2.3031
G01 X0.2850 Y2.3052
G01 X0.2889 Y2.3100
G01 X0.2900 Y2.3142
G01 X0.2900 Y2.3258
G01 X0.2937 Y2.3346
G01 X0.3004 Y2.3413
G01 X0.3092 Y2.3450
G01 X0.4188 Y2.3450
G01 X0.4276 Y2.3413
G01 X0.4343 Y2.3346
G01 X0.4380 Y2.3258
G01 X0.4380 Y2.3142
G01 X0.4389 Y2.3104
G01 X0.4424 Y2.3057
G01 X0.4473 Y2.3033
G01 X0.6638 Y2.3030
G01 X0.6726 Y2.2993
G01 X0.6793 Y2.2926
G01 X0.6830 Y2.2838
G01 X0.6830 Y1.8880
G01 X0.6320 Y1.8880
G01 X0.6320 Y2.2390
G01 X0.6309 Y2.2431
G01 X0.6281 Y2.2459
G01 X0.6240 Y2.2470
G01 X0.0590 Y2.2470
G01 X0.0556 Y2.2462
G01 X0.0526 Y2.2438
G01 X0.0510 Y2.2390
G01 X0.0510 Y1.4840
G01 X0.0515 Y1.4813
G01 X0.0531 Y1.4786
G01 X0.0556 Y1.4768
G01 X0.0586 Y1.4760
G00 Z0.1000
G00 X0.3136 Y2.2630
G01 F3.00
G01 Z-0.0040
G01 F3.00
G01 X0.4140 Y2.2630
G01 X0.4181 Y2.2641
G01 X0.4209 Y2.2669
G01 X0.4220 Y2.2706
G01 X0.4220 Y2.3210
G01 X0.4209 Y2.3251
G01 X0.4181 Y2.3279
G01 X0.4144 Y2.3290
G01 X0.3140 Y2.3290
G01 X0.3099 Y2.3279
G01 X0.3071 Y2.3251
G01 X0.3060 Y2.3214
G01 X0.3060 Y2.2706
G01 X0.3068 Y2.2676
G01 X0.3086 Y2.2651
G01 X0.3136 Y2.2630
G00 Z0.1000
M05
G00 Z0.1000
G00 Z2.00
G00 X0Y0
