(G-CODE GENERATED BY FLATCAM - www.flatcam.org 2018)

(Name: mdx15_tests.cmp_iso_cnc)
(Type: G-code from Geometry)
(Units:  in)

(TOOL DIAMETER: 0.005 in)

(Feedrate: 3.0 in/min)
(Feedrate rapids 3.0 in/min)

(Z_Cut: -1e-05 in)
(Z_Move: 0.1 in)
(Z Toolchange: 0.787402 in)
(Z End 2.0 in)
(Steps per circle: 64)
(Postprocessor Geometry: default)
(Spindle Speed: None RPM)

(Created on Monday, 22 October 2018 at 13:25)


G20
G90
G94
G01 F3.00
G00 Z0.1000
M03
G4 P1
G00 X0.1100 Y0.2366
G01 F3.00
G01 Z-0.0000
G01 F3.00
G01 X0.1078 Y0.2344
G01 X0.1048 Y0.2272
G01 X0.1048 Y0.2195
G01 X0.1078 Y0.2123
G01 X0.1986 Y0.1215
G01 X0.2058 Y0.1185
G01 X0.4779 Y0.1185
G01 X0.4878 Y0.1229
G01 X0.5083 Y0.1231
G01 X0.5104 Y0.1251
G01 X0.5104 Y0.1509
G01 X0.5083 Y0.1529
G01 X0.4879 Y0.1530
G01 X0.4779 Y0.1575
G01 X0.2184 Y0.1577
G01 X0.2161 Y0.1591
G01 X0.1350 Y0.2402
G01 X0.1338 Y0.2437
G01 X0.1338 Y0.3121
G01 X0.1358 Y0.3159
G01 X0.1397 Y0.3172
G01 X0.1432 Y0.3156
G01 X0.2863 Y0.1725
G01 X0.4808 Y0.1725
G01 X0.4832 Y0.1731
G01 X0.5083 Y0.1731
G01 X0.5104 Y0.1751
G01 X0.5104 Y0.2009
G01 X0.5083 Y0.2029
G01 X0.3014 Y0.2035
G01 X0.2989 Y0.2041
G01 X0.1607 Y0.3419
G01 X0.1594 Y0.3454
G01 X0.1594 Y0.3885
G01 X0.1614 Y0.3922
G01 X0.1654 Y0.3934
G01 X0.1688 Y0.3918
G01 X0.3321 Y0.2285
G01 X0.4325 Y0.2285
G01 X0.4354 Y0.2273
G01 X0.4396 Y0.2231
G01 X0.5083 Y0.2231
G01 X0.5104 Y0.2251
G01 X0.5104 Y0.2509
G01 X0.5083 Y0.2529
G01 X0.4396 Y0.2529
G01 X0.4352 Y0.2485
G01 X0.4321 Y0.2475
G01 X0.3422 Y0.2475
G01 X0.3384 Y0.2491
G01 X0.1903 Y0.3973
G01 X0.1891 Y0.4006
G01 X0.1891 Y0.4355
G01 X0.1897 Y0.4379
G01 X0.1912 Y0.4397
G01 X0.1942 Y0.4409
G01 X0.2120 Y0.4409
G01 X0.2151 Y0.4439
G01 X0.2175 Y0.4448
G01 X0.2217 Y0.4436
G01 X0.3838 Y0.2815
G01 X0.4330 Y0.2814
G01 X0.4363 Y0.2795
G01 X0.4376 Y0.2751
G01 X0.4396 Y0.2731
G01 X0.5083 Y0.2731
G01 X0.5104 Y0.2751
G01 X0.5104 Y0.3009
G01 X0.5083 Y0.3029
G01 X0.4396 Y0.3029
G01 X0.4376 Y0.3009
G01 X0.4363 Y0.2965
G01 X0.4327 Y0.2945
G01 X0.3914 Y0.2945
G01 X0.3884 Y0.2954
G01 X0.2153 Y0.4684
G01 X0.2140 Y0.4718
G01 X0.2140 Y0.5038
G01 X0.2120 Y0.5058
G01 X0.1134 Y0.5058
G01 X0.1113 Y0.5038
G01 X0.1113 Y0.4430
G01 X0.1139 Y0.4402
G01 X0.1148 Y0.4373
G01 X0.1148 Y0.2437
G01 X0.1139 Y0.2407
G01 X0.1100 Y0.2366
G00 Z0.1000
G00 X0.1403 Y0.4419
G01 F3.00
G01 Z-0.0000
G01 F3.00
G01 X0.1414 Y0.4419
G01 X0.1414 Y0.3425
G01 X0.1378 Y0.3389
G01 X0.1357 Y0.3337
G01 X0.1355 Y0.3293
G01 X0.1371 Y0.3240
G01 X0.1396 Y0.3205
G01 X0.2845 Y0.1760
G01 X0.2885 Y0.1741
G01 X0.2927 Y0.1735
G01 X0.4740 Y0.1735
G01 X0.5070 Y0.1741
G01 X0.5089 Y0.1751
G01 X0.5094 Y0.1996
G01 X0.5088 Y0.2011
G01 X0.5073 Y0.2019
G01 X0.2987 Y0.2025
G01 X0.1584 Y0.3425
G01 X0.1584 Y0.4419
G01 X0.1609 Y0.4424
G01 X0.1619 Y0.4444
G01 X0.1619 Y0.5024
G01 X0.1602 Y0.5047
G01 X0.1403 Y0.5048
G01 X0.1381 Y0.5032
G01 X0.1379 Y0.4443
G01 X0.1387 Y0.4426
G01 X0.1403 Y0.4419
G00 Z0.1000
G00 X0.1659 Y0.4419
G01 F3.00
G01 Z-0.0000
G01 F3.00
G01 X0.1711 Y0.4419
G01 X0.1711 Y0.3944
G01 X0.1730 Y0.3890
G01 X0.3314 Y0.2309
G01 X0.3360 Y0.2295
G01 X0.4386 Y0.2295
G01 X0.4388 Y0.2255
G01 X0.4409 Y0.2241
G01 X0.5069 Y0.2241
G01 X0.5090 Y0.2253
G01 X0.5094 Y0.2496
G01 X0.5088 Y0.2511
G01 X0.5073 Y0.2519
G01 X0.4409 Y0.2519
G01 X0.4388 Y0.2505
G01 X0.4386 Y0.2465
G01 X0.3396 Y0.2465
G01 X0.1881 Y0.3980
G01 X0.1875 Y0.5023
G01 X0.1858 Y0.5047
G01 X0.1659 Y0.5048
G01 X0.1637 Y0.5032
G01 X0.1635 Y0.4443
G01 X0.1643 Y0.4426
G01 X0.1659 Y0.4419
G00 Z0.1000
G00 X0.1915 Y0.4419
G01 F3.00
G01 Z-0.0000
G01 F3.00
G01 X0.2118 Y0.4423
G01 X0.2130 Y0.4440
G01 X0.2131 Y0.4536
G01 X0.3839 Y0.2831
G01 X0.3864 Y0.2825
G01 X0.4386 Y0.2825
G01 X0.4386 Y0.2759
G01 X0.4409 Y0.2741
G01 X0.5069 Y0.2741
G01 X0.5092 Y0.2755
G01 X0.5094 Y0.2996
G01 X0.5088 Y0.3011
G01 X0.5073 Y0.3019
G01 X0.4409 Y0.3019
G01 X0.4386 Y0.3001
G01 X0.4386 Y0.2935
G01 X0.3887 Y0.2935
G01 X0.2131 Y0.4692
G01 X0.2131 Y0.5024
G01 X0.2114 Y0.5047
G01 X0.1915 Y0.5048
G01 X0.1892 Y0.5032
G01 X0.1891 Y0.4443
G01 X0.1899 Y0.4426
G01 X0.1915 Y0.4419
G00 Z0.1000
G00 X0.1123 Y0.5024
G01 F3.00
G01 Z-0.0000
G01 F3.00
G01 X0.1123 Y0.4443
G01 X0.1133 Y0.4424
G01 X0.1158 Y0.4419
G01 X0.1158 Y0.2398
G01 X0.1112 Y0.2365
G01 X0.1079 Y0.2320
G01 X0.1059 Y0.2253
G01 X0.1061 Y0.2198
G01 X0.1080 Y0.2146
G01 X0.1112 Y0.2103
G01 X0.1966 Y0.1249
G01 X0.2026 Y0.1209
G01 X0.2096 Y0.1195
G01 X0.4740 Y0.1195
G01 X0.4809 Y0.1209
G01 X0.4861 Y0.1241
G01 X0.5070 Y0.1241
G01 X0.5088 Y0.1249
G01 X0.5094 Y0.1264
G01 X0.5094 Y0.1494
G01 X0.5086 Y0.1513
G01 X0.5070 Y0.1519
G01 X0.4861 Y0.1519
G01 X0.4811 Y0.1551
G01 X0.4758 Y0.1564
G01 X0.2173 Y0.1565
G01 X0.1374 Y0.2365
G01 X0.1328 Y0.2398
G01 X0.1328 Y0.4419
G01 X0.1353 Y0.4424
G01 X0.1363 Y0.4443
G01 X0.1363 Y0.5024
G01 X0.1356 Y0.5040
G01 X0.1341 Y0.5048
G01 X0.1148 Y0.5048
G01 X0.1131 Y0.5042
G01 X0.1123 Y0.5024
G00 Z0.1000
G00 X0.1147 Y0.6112
G01 F3.00
G01 Z-0.0000
G01 F3.00
G01 X0.1339 Y0.6112
G01 X0.1361 Y0.6128
G01 X0.1363 Y0.6717
G01 X0.1346 Y0.6739
G01 X0.1147 Y0.6741
G01 X0.1125 Y0.6724
G01 X0.1123 Y0.6136
G01 X0.1131 Y0.6118
G01 X0.1147 Y0.6112
G00 Z0.1000
G00 X0.1403 Y0.6112
G01 F3.00
G01 Z-0.0000
G01 F3.00
G01 X0.1595 Y0.6112
G01 X0.1617 Y0.6128
G01 X0.1619 Y0.6717
G01 X0.1602 Y0.6739
G01 X0.1403 Y0.6741
G01 X0.1381 Y0.6724
G01 X0.1379 Y0.6136
G01 X0.1386 Y0.6120
G01 X0.1403 Y0.6112
G00 Z0.1000
G00 X0.1915 Y0.6112
G01 F3.00
G01 Z-0.0000
G01 F3.00
G01 X0.2107 Y0.6112
G01 X0.2129 Y0.6128
G01 X0.2131 Y0.6717
G01 X0.2114 Y0.6739
G01 X0.1915 Y0.6741
G01 X0.1892 Y0.6724
G01 X0.1891 Y0.6136
G01 X0.1897 Y0.6120
G01 X0.1915 Y0.6112
G00 Z0.1000
G00 X0.1827 Y0.6741
G01 F3.00
G01 Z-0.0000
G01 F3.00
G01 X0.1860 Y0.6738
G01 X0.1875 Y0.6716
G01 X0.1875 Y0.6136
G01 X0.1860 Y0.6114
G01 X0.1827 Y0.6112
G01 X0.1827 Y0.6062
G01 X0.1879 Y0.6067
G01 X0.1937 Y0.6101
G01 X0.2120 Y0.6102
G01 X0.2140 Y0.6122
G01 X0.2140 Y0.6730
G01 X0.2120 Y0.6751
G01 X0.1933 Y0.6752
G01 X0.1860 Y0.6791
G01 X0.1827 Y0.6791
G01 X0.1827 Y0.6741
G00 Z0.1000
G00 X0.1629 Y0.6784
G01 F3.00
G01 Z-0.0000
G01 F3.00
G01 X0.1572 Y0.6751
G01 X0.1134 Y0.6751
G01 X0.1113 Y0.6730
G01 X0.1113 Y0.6122
G01 X0.1134 Y0.6102
G01 X0.1570 Y0.6102
G01 X0.1593 Y0.6095
G01 X0.1631 Y0.6067
G01 X0.1682 Y0.6062
G01 X0.1682 Y0.6112
G01 X0.1649 Y0.6114
G01 X0.1635 Y0.6136
G01 X0.1635 Y0.6716
G01 X0.1649 Y0.6738
G01 X0.1682 Y0.6741
G01 X0.1682 Y0.6791
G01 X0.1629 Y0.6784
G00 Z0.1000
G00 X0.0552 Y0.7630
G01 F3.00
G01 Z-0.0000
G01 F3.00
G01 X0.0552 Y0.0560
G01 X0.0557 Y0.0538
G01 X0.0571 Y0.0518
G01 X0.0607 Y0.0505
G01 X0.8677 Y0.0505
G01 X0.8699 Y0.0510
G01 X0.8719 Y0.0524
G01 X0.8732 Y0.0560
G01 X0.8732 Y0.7630
G01 X0.8727 Y0.7652
G01 X0.8713 Y0.7672
G01 X0.8677 Y0.7685
G01 X0.0607 Y0.7685
G01 X0.0568 Y0.7669
G01 X0.0552 Y0.7630
G00 Z0.1000
G00 X0.3270 Y0.5889
G01 F3.00
G01 Z-0.0000
G01 F3.00
G01 X0.3228 Y0.5828
G01 X0.3206 Y0.5757
G01 X0.3232 Y0.5816
G01 X0.3270 Y0.5889
G00 Z0.1000
G00 X0.3556 Y0.6271
G01 F3.00
G01 Z-0.0000
G01 F3.00
G01 X0.3498 Y0.6224
G01 X0.3455 Y0.6162
G01 X0.3494 Y0.6206
G01 X0.3556 Y0.6271
G00 Z0.1000
G00 X0.3942 Y0.6550
G01 F3.00
G01 Z-0.0000
G01 F3.00
G01 X0.3873 Y0.6523
G01 X0.3815 Y0.6477
G01 X0.3886 Y0.6520
G01 X0.3942 Y0.6550
G00 Z0.1000
G00 X0.4393 Y0.6704
G01 F3.00
G01 Z-0.0000
G01 F3.00
G01 X0.4319 Y0.6698
G01 X0.4251 Y0.6671
G01 X0.4325 Y0.6690
G01 X0.4393 Y0.6704
G00 Z0.1000
G00 X0.4869 Y0.6718
G01 F3.00
G01 Z-0.0000
G01 F3.00
G01 X0.4797 Y0.6734
G01 X0.4723 Y0.6729
G01 X0.4797 Y0.6725
G01 X0.4869 Y0.6718
G00 Z0.1000
G00 X0.5328 Y0.6591
G01 F3.00
G01 Z-0.0000
G01 F3.00
G01 X0.5265 Y0.6627
G01 X0.5192 Y0.6644
G01 X0.5254 Y0.6621
G01 X0.5328 Y0.6591
G00 Z0.1000
G00 X0.5730 Y0.6333
G01 F3.00
G01 Z-0.0000
G01 F3.00
G01 X0.5680 Y0.6388
G01 X0.5615 Y0.6425
G01 X0.5663 Y0.6389
G01 X0.5730 Y0.6333
G00 Z0.1000
G00 X0.6038 Y0.5969
G01 F3.00
G01 Z-0.0000
G01 F3.00
G01 X0.6006 Y0.6036
G01 X0.5956 Y0.6090
G01 X0.6005 Y0.6021
G01 X0.6038 Y0.5969
G00 Z0.1000
G00 X0.6225 Y0.5531
G01 F3.00
G01 Z-0.0000
G01 F3.00
G01 X0.6214 Y0.5604
G01 X0.6182 Y0.5671
G01 X0.6207 Y0.5596
G01 X0.6225 Y0.5531
G00 Z0.1000
G00 X0.6274 Y0.5057
G01 F3.00
G01 Z-0.0000
G01 F3.00
G01 X0.6285 Y0.5130
G01 X0.6274 Y0.5203
G01 X0.6276 Y0.5132
G01 X0.6274 Y0.5057
G00 Z0.1000
G00 X0.6182 Y0.4589
G01 F3.00
G01 Z-0.0000
G01 F3.00
G01 X0.6214 Y0.4656
G01 X0.6225 Y0.4730
G01 X0.6207 Y0.4664
G01 X0.6182 Y0.4589
G00 Z0.1000
G00 X0.5956 Y0.4170
G01 F3.00
G01 Z-0.0000
G01 F3.00
G01 X0.6006 Y0.4224
G01 X0.6038 Y0.4291
G01 X0.6005 Y0.4239
G01 X0.5956 Y0.4170
G00 Z0.1000
G00 X0.5615 Y0.3835
G01 F3.00
G01 Z-0.0000
G01 F3.00
G01 X0.5680 Y0.3872
G01 X0.5730 Y0.3927
G01 X0.5663 Y0.3871
G01 X0.5615 Y0.3835
G00 Z0.1000
G00 X0.5192 Y0.3616
G01 F3.00
G01 Z-0.0000
G01 F3.00
G01 X0.5265 Y0.3633
G01 X0.5328 Y0.3669
G01 X0.5254 Y0.3639
G01 X0.5192 Y0.3616
G00 Z0.1000
G00 X0.4723 Y0.3531
G01 F3.00
G01 Z-0.0000
G01 F3.00
G01 X0.4797 Y0.3526
G01 X0.4869 Y0.3542
G01 X0.4797 Y0.3535
G01 X0.4723 Y0.3531
G00 Z0.1000
G00 X0.4251 Y0.3589
G01 F3.00
G01 Z-0.0000
G01 F3.00
G01 X0.4319 Y0.3562
G01 X0.4393 Y0.3556
G01 X0.4325 Y0.3570
G01 X0.4251 Y0.3589
G00 Z0.1000
G00 X0.3815 Y0.3783
G01 F3.00
G01 Z-0.0000
G01 F3.00
G01 X0.3873 Y0.3737
G01 X0.3942 Y0.3710
G01 X0.3886 Y0.3740
G01 X0.3815 Y0.3783
G00 Z0.1000
G00 X0.3455 Y0.4098
G01 F3.00
G01 Z-0.0000
G01 F3.00
G01 X0.3498 Y0.4036
G01 X0.3556 Y0.3989
G01 X0.3494 Y0.4054
G01 X0.3455 Y0.4098
G00 Z0.1000
G00 X0.3206 Y0.4503
G01 F3.00
G01 Z-0.0000
G01 F3.00
G01 X0.3228 Y0.4432
G01 X0.3270 Y0.4371
G01 X0.3232 Y0.4444
G01 X0.3206 Y0.4503
G00 Z0.1000
G00 X0.3086 Y0.4964
G01 F3.00
G01 Z-0.0000
G01 F3.00
G01 X0.3086 Y0.4890
G01 X0.3108 Y0.4820
G01 X0.3095 Y0.4893
G01 X0.3086 Y0.4964
G00 Z0.1000
G00 X0.3448 Y0.5130
G01 F3.00
G01 Z-0.0000
G01 F3.00
G01 X0.3454 Y0.5010
G01 X0.3471 Y0.4890
G01 X0.3501 Y0.4773
G01 X0.3541 Y0.4660
G01 X0.3593 Y0.4551
G01 X0.3655 Y0.4447
G01 X0.3727 Y0.4350
G01 X0.3808 Y0.4261
G01 X0.3897 Y0.4180
G01 X0.3994 Y0.4108
G01 X0.4097 Y0.4046
G01 X0.4206 Y0.3994
G01 X0.4320 Y0.3954
G01 X0.4437 Y0.3925
G01 X0.4556 Y0.3907
G01 X0.4677 Y0.3901
G01 X0.4797 Y0.3907
G01 X0.4917 Y0.3925
G01 X0.5034 Y0.3954
G01 X0.5147 Y0.3994
G01 X0.5256 Y0.4046
G01 X0.5360 Y0.4108
G01 X0.5456 Y0.4180
G01 X0.5546 Y0.4261
G01 X0.5627 Y0.4350
G01 X0.5699 Y0.4447
G01 X0.5761 Y0.4551
G01 X0.5812 Y0.4660
G01 X0.5853 Y0.4773
G01 X0.5882 Y0.4890
G01 X0.5900 Y0.5010
G01 X0.5906 Y0.5130
G01 X0.5900 Y0.5250
G01 X0.5882 Y0.5370
G01 X0.5853 Y0.5487
G01 X0.5812 Y0.5600
G01 X0.5761 Y0.5709
G01 X0.5699 Y0.5813
G01 X0.5627 Y0.5910
G01 X0.5546 Y0.5999
G01 X0.5456 Y0.6080
G01 X0.5360 Y0.6152
G01 X0.5256 Y0.6214
G01 X0.5147 Y0.6266
G01 X0.5034 Y0.6306
G01 X0.4917 Y0.6335
G01 X0.4797 Y0.6353
G01 X0.4677 Y0.6359
G01 X0.4556 Y0.6353
G01 X0.4437 Y0.6335
G01 X0.4320 Y0.6306
G01 X0.4206 Y0.6266
G01 X0.4097 Y0.6214
G01 X0.3994 Y0.6152
G01 X0.3897 Y0.6080
G01 X0.3808 Y0.5999
G01 X0.3727 Y0.5910
G01 X0.3655 Y0.5813
G01 X0.3593 Y0.5709
G01 X0.3541 Y0.5600
G01 X0.3501 Y0.5487
G01 X0.3471 Y0.5370
G01 X0.3454 Y0.5250
G01 X0.3448 Y0.5130
G00 Z0.1000
G00 X0.3108 Y0.5440
G01 F3.00
G01 Z-0.0000
G01 F3.00
G01 X0.3086 Y0.5370
G01 X0.3086 Y0.5296
G01 X0.3095 Y0.5367
G01 X0.3108 Y0.5440
G00 Z0.1000
G00 X0.4092 Y0.5130
G01 F3.00
G01 Z-0.0000
G01 F3.00
G01 X0.4103 Y0.5015
G01 X0.4137 Y0.4904
G01 X0.4192 Y0.4803
G01 X0.4264 Y0.4715
G01 X0.4355 Y0.4642
G01 X0.4455 Y0.4589
G01 X0.4567 Y0.4555
G01 X0.4680 Y0.4545
G01 X0.4795 Y0.4557
G01 X0.4905 Y0.4591
G01 X0.5006 Y0.4646
G01 X0.5094 Y0.4720
G01 X0.5166 Y0.4810
G01 X0.5220 Y0.4911
G01 X0.5249 Y0.5009
G01 X0.5262 Y0.5123
G01 X0.5252 Y0.5237
G01 X0.5220 Y0.5346
G01 X0.5168 Y0.5449
G01 X0.5094 Y0.5540
G01 X0.5006 Y0.5614
G01 X0.4905 Y0.5669
G01 X0.4795 Y0.5703
G01 X0.4680 Y0.5715
G01 X0.4567 Y0.5705
G01 X0.4456 Y0.5672
G01 X0.4355 Y0.5618
G01 X0.4265 Y0.5546
G01 X0.4192 Y0.5457
G01 X0.4137 Y0.5356
G01 X0.4103 Y0.5245
G01 X0.4092 Y0.5130
G00 Z0.1000
G00 X0.4262 Y0.5130
G01 F3.00
G01 Z-0.0000
G01 F3.00
G01 X0.4270 Y0.5049
G01 X0.4294 Y0.4970
G01 X0.4333 Y0.4898
G01 X0.4385 Y0.4835
G01 X0.4448 Y0.4784
G01 X0.4520 Y0.4746
G01 X0.4599 Y0.4722
G01 X0.4680 Y0.4715
G01 X0.4761 Y0.4724
G01 X0.4839 Y0.4748
G01 X0.4911 Y0.4787
G01 X0.4973 Y0.4840
G01 X0.5025 Y0.4903
G01 X0.5062 Y0.4976
G01 X0.5085 Y0.5054
G01 X0.5092 Y0.5136
G01 X0.5083 Y0.5217
G01 X0.5062 Y0.5284
G01 X0.5025 Y0.5357
G01 X0.4973 Y0.5420
G01 X0.4911 Y0.5473
G01 X0.4839 Y0.5512
G01 X0.4761 Y0.5536
G01 X0.4680 Y0.5545
G01 X0.4599 Y0.5538
G01 X0.4520 Y0.5514
G01 X0.4448 Y0.5476
G01 X0.4385 Y0.5425
G01 X0.4333 Y0.5362
G01 X0.4294 Y0.5290
G01 X0.4270 Y0.5211
G01 X0.4262 Y0.5130
G00 Z0.1000
G00 X0.7284 Y0.2741
G01 F3.00
G01 Z-0.0000
G01 F3.00
G01 X0.7952 Y0.2742
G01 X0.7968 Y0.2764
G01 X0.7967 Y0.3003
G01 X0.7943 Y0.3019
G01 X0.7276 Y0.3018
G01 X0.7260 Y0.2996
G01 X0.7260 Y0.2764
G01 X0.7266 Y0.2749
G01 X0.7284 Y0.2741
G00 Z0.1000
G00 X0.7250 Y0.2251
G01 F3.00
G01 Z-0.0000
G01 F3.00
G01 X0.7270 Y0.2231
G01 X0.7958 Y0.2231
G01 X0.7978 Y0.2251
G01 X0.7978 Y0.2509
G01 X0.7958 Y0.2529
G01 X0.7270 Y0.2529
G01 X0.7250 Y0.2509
G01 X0.7250 Y0.2251
G00 Z0.1000
G00 X0.7284 Y0.2241
G01 F3.00
G01 Z-0.0000
G01 F3.00
G01 X0.7952 Y0.2242
G01 X0.7968 Y0.2264
G01 X0.7967 Y0.2503
G01 X0.7943 Y0.2519
G01 X0.7276 Y0.2518
G01 X0.7260 Y0.2496
G01 X0.7260 Y0.2264
G01 X0.7268 Y0.2247
G01 X0.7284 Y0.2241
G00 Z0.1000
G00 X0.7284 Y0.1741
G01 F3.00
G01 Z-0.0000
G01 F3.00
G01 X0.7952 Y0.1742
G01 X0.7968 Y0.1764
G01 X0.7967 Y0.2003
G01 X0.7943 Y0.2019
G01 X0.7276 Y0.2018
G01 X0.7260 Y0.1996
G01 X0.7260 Y0.1764
G01 X0.7268 Y0.1747
G01 X0.7284 Y0.1741
G00 Z0.1000
G00 X0.7284 Y0.1241
G01 F3.00
G01 Z-0.0000
G01 F3.00
G01 X0.7952 Y0.1242
G01 X0.7968 Y0.1264
G01 X0.7967 Y0.1503
G01 X0.7943 Y0.1519
G01 X0.7276 Y0.1518
G01 X0.7260 Y0.1496
G01 X0.7260 Y0.1264
G01 X0.7268 Y0.1247
G01 X0.7284 Y0.1241
G00 Z0.1000
G00 X0.7961 Y0.1526
G01 F3.00
G01 Z-0.0000
G01 F3.00
G01 X0.7270 Y0.1529
G01 X0.7250 Y0.1509
G01 X0.7250 Y0.1251
G01 X0.7270 Y0.1231
G01 X0.7958 Y0.1231
G01 X0.7978 Y0.1251
G01 X0.7978 Y0.1509
G01 X0.7961 Y0.1526
G00 Z0.1000
G00 X0.7978 Y0.2009
G01 F3.00
G01 Z-0.0000
G01 F3.00
G01 X0.7958 Y0.2029
G01 X0.7270 Y0.2029
G01 X0.7250 Y0.2009
G01 X0.7250 Y0.1751
G01 X0.7270 Y0.1731
G01 X0.7958 Y0.1731
G01 X0.7978 Y0.1751
G01 X0.7978 Y0.2009
G00 Z0.1000
G00 X0.7969 Y0.2742
G01 F3.00
G01 Z-0.0000
G01 F3.00
G01 X0.7978 Y0.2751
G01 X0.7978 Y0.3009
G01 X0.7958 Y0.3029
G01 X0.7270 Y0.3029
G01 X0.7250 Y0.3009
G01 X0.7250 Y0.2751
G01 X0.7270 Y0.2731
G01 X0.7958 Y0.2731
G01 X0.7969 Y0.2742
G00 Z0.1000
M05
G00 Z0.1000
G00 Z2.00
G00 X0Y0
