(G-CODE GENERATED BY FLATCAM - www.flatcam.org 2018)

(Name: test_cnc.cmp_iso_cnc)
(Type: G-code from Geometry)
(Units:  in)

(TOOL DIAMETER: 0.016 in)

(Feedrate: 3.0 in/min)
(Feedrate rapids 3.0 in/min)

(Z_Cut: -0.002 in)
(Z_Move: 0.1 in)
(Z Toolchange: 0.787402 in)
(Z End 2.0 in)
(Steps per circle: 64)
(Postprocessor Geometry: default)
(Spindle Speed: None RPM)

(Created on Thursday, 18 October 2018 at 11:59)


G20
G90
G94
G01 F3.00
G00 Z0.1000
M03
G4 P1
G00 X0.1740 Y0.0630
G01 F3.00
G01 Z-0.0020
G01 F3.00
G01 X0.1740 Y0.5632
G01 X0.1732 Y0.5672
G01 X0.1708 Y0.5708
G01 X0.1672 Y0.5732
G01 X0.1630 Y0.5740
G01 X0.1588 Y0.5732
G01 X0.1552 Y0.5708
G01 X0.1528 Y0.5672
G01 X0.1520 Y0.5632
G01 X0.1520 Y0.0628
G01 X0.1528 Y0.0588
G01 X0.1552 Y0.0552
G01 X0.1588 Y0.0528
G01 X0.1630 Y0.0520
G01 X0.1672 Y0.0528
G01 X0.1708 Y0.0552
G01 X0.1732 Y0.0588
G01 X0.1740 Y0.0630
G00 Z0.1000
G00 X0.4770 Y0.0630
G01 F3.00
G01 Z-0.0020
G01 F3.00
G01 X0.4770 Y0.5632
G01 X0.4759 Y0.5684
G01 X0.4729 Y0.5729
G01 X0.4684 Y0.5759
G01 X0.4626 Y0.5770
G01 X0.4576 Y0.5759
G01 X0.4531 Y0.5729
G01 X0.4501 Y0.5684
G01 X0.4490 Y0.5632
G01 X0.4490 Y0.0628
G01 X0.4501 Y0.0576
G01 X0.4531 Y0.0531
G01 X0.4576 Y0.0501
G01 X0.4630 Y0.0490
G01 X0.4684 Y0.0501
G01 X0.4729 Y0.0531
G01 X0.4759 Y0.0576
G01 X0.4770 Y0.0630
G00 Z0.1000
G00 X0.8370 Y0.0630
G01 F3.00
G01 Z-0.0020
G01 F3.00
G01 X0.8370 Y0.5634
G01 X0.8352 Y0.5722
G01 X0.8300 Y0.5800
G01 X0.8222 Y0.5852
G01 X0.8177 Y0.5865
G01 X0.8126 Y0.5870
G01 X0.8038 Y0.5852
G01 X0.7960 Y0.5800
G01 X0.7908 Y0.5722
G01 X0.7890 Y0.5634
G01 X0.7890 Y0.0626
G01 X0.7908 Y0.0538
G01 X0.7960 Y0.0460
G01 X0.8038 Y0.0408
G01 X0.8130 Y0.0390
G01 X0.8222 Y0.0408
G01 X0.8300 Y0.0460
G01 X0.8352 Y0.0538
G01 X0.8370 Y0.0630
G00 Z0.1000
G00 X0.5930 Y0.5630
G01 F3.00
G01 Z-0.0020
G01 F3.00
G01 X0.5930 Y0.0626
G01 X0.5945 Y0.0553
G01 X0.5989 Y0.0489
G01 X0.6053 Y0.0445
G01 X0.6134 Y0.0430
G01 X0.6207 Y0.0445
G01 X0.6271 Y0.0489
G01 X0.6315 Y0.0553
G01 X0.6330 Y0.0626
G01 X0.6330 Y0.5634
G01 X0.6315 Y0.5707
G01 X0.6271 Y0.5771
G01 X0.6207 Y0.5815
G01 X0.6130 Y0.5830
G01 X0.6053 Y0.5815
G01 X0.5989 Y0.5771
G01 X0.5945 Y0.5707
G01 X0.5930 Y0.5630
G00 Z0.1000
G00 X0.6008 Y0.6689
G01 F3.00
G01 Z-0.0020
G01 F3.00
G01 X0.6260 Y0.6690
G01 X0.6302 Y0.6709
G01 X0.6326 Y0.6749
G01 X0.6328 Y0.7548
G01 X0.6313 Y0.7591
G01 X0.6268 Y0.7621
G01 X0.6000 Y0.7623
G01 X0.5958 Y0.7603
G01 X0.5934 Y0.7563
G01 X0.5932 Y0.6765
G01 X0.5939 Y0.6734
G01 X0.5958 Y0.6709
G01 X0.6008 Y0.6689
G00 Z0.1000
G00 X0.5508 Y0.6689
G01 F3.00
G01 Z-0.0020
G01 F3.00
G01 X0.5760 Y0.6690
G01 X0.5802 Y0.6709
G01 X0.5826 Y0.6749
G01 X0.5828 Y0.7548
G01 X0.5813 Y0.7591
G01 X0.5768 Y0.7621
G01 X0.5500 Y0.7623
G01 X0.5458 Y0.7603
G01 X0.5434 Y0.7563
G01 X0.5432 Y0.6765
G01 X0.5439 Y0.6734
G01 X0.5458 Y0.6709
G01 X0.5508 Y0.6689
G00 Z0.1000
G00 X0.5008 Y0.6689
G01 F3.00
G01 Z-0.0020
G01 F3.00
G01 X0.5260 Y0.6690
G01 X0.5302 Y0.6709
G01 X0.5326 Y0.6749
G01 X0.5328 Y0.7548
G01 X0.5313 Y0.7591
G01 X0.5268 Y0.7621
G01 X0.5000 Y0.7623
G01 X0.4958 Y0.7603
G01 X0.4934 Y0.7563
G01 X0.4932 Y0.6765
G01 X0.4939 Y0.6734
G01 X0.4958 Y0.6709
G01 X0.5008 Y0.6689
G00 Z0.1000
G00 X0.4508 Y0.6689
G01 F3.00
G01 Z-0.0020
G01 F3.00
G01 X0.4760 Y0.6690
G01 X0.4802 Y0.6709
G01 X0.4826 Y0.6749
G01 X0.4828 Y0.7548
G01 X0.4808 Y0.7597
G01 X0.4768 Y0.7621
G01 X0.4500 Y0.7623
G01 X0.4458 Y0.7603
G01 X0.4434 Y0.7563
G01 X0.4432 Y0.6765
G01 X0.4452 Y0.6715
G01 X0.4477 Y0.6696
G01 X0.4508 Y0.6689
G00 Z0.1000
G00 X0.4008 Y0.6689
G01 F3.00
G01 Z-0.0020
G01 F3.00
G01 X0.4260 Y0.6690
G01 X0.4302 Y0.6709
G01 X0.4326 Y0.6749
G01 X0.4328 Y0.7548
G01 X0.4308 Y0.7597
G01 X0.4268 Y0.7621
G01 X0.4000 Y0.7623
G01 X0.3958 Y0.7603
G01 X0.3934 Y0.7563
G01 X0.3932 Y0.6765
G01 X0.3952 Y0.6715
G01 X0.3977 Y0.6696
G01 X0.4008 Y0.6689
G00 Z0.1000
G00 X0.3508 Y0.6689
G01 F3.00
G01 Z-0.0020
G01 F3.00
G01 X0.3760 Y0.6690
G01 X0.3802 Y0.6709
G01 X0.3826 Y0.6749
G01 X0.3828 Y0.7548
G01 X0.3808 Y0.7597
G01 X0.3768 Y0.7621
G01 X0.3500 Y0.7623
G01 X0.3458 Y0.7603
G01 X0.3434 Y0.7563
G01 X0.3432 Y0.6765
G01 X0.3452 Y0.6715
G01 X0.3477 Y0.6696
G01 X0.3508 Y0.6689
G00 Z0.1000
G00 X0.3008 Y0.6689
G01 F3.00
G01 Z-0.0020
G01 F3.00
G01 X0.3260 Y0.6690
G01 X0.3302 Y0.6709
G01 X0.3326 Y0.6749
G01 X0.3328 Y0.7548
G01 X0.3308 Y0.7597
G01 X0.3268 Y0.7621
G01 X0.3000 Y0.7623
G01 X0.2958 Y0.7603
G01 X0.2934 Y0.7563
G01 X0.2932 Y0.6765
G01 X0.2952 Y0.6715
G01 X0.2977 Y0.6696
G01 X0.3008 Y0.6689
G00 Z0.1000
G00 X0.3010 Y0.5630
G01 F3.00
G01 Z-0.0020
G01 F3.00
G01 X0.3010 Y0.0628
G01 X0.3019 Y0.0584
G01 X0.3045 Y0.0545
G01 X0.3084 Y0.0519
G01 X0.3130 Y0.0510
G01 X0.3176 Y0.0519
G01 X0.3215 Y0.0545
G01 X0.3241 Y0.0584
G01 X0.3250 Y0.0628
G01 X0.3250 Y0.5632
G01 X0.3241 Y0.5676
G01 X0.3215 Y0.5715
G01 X0.3176 Y0.5741
G01 X0.3130 Y0.5750
G01 X0.3084 Y0.5741
G01 X0.3045 Y0.5715
G01 X0.3019 Y0.5676
G01 X0.3010 Y0.5630
G00 Z0.1000
G00 X0.3008 Y0.8636
G01 F3.00
G01 Z-0.0020
G01 F3.00
G01 X0.3260 Y0.8637
G01 X0.3302 Y0.8657
G01 X0.3326 Y0.8697
G01 X0.3328 Y0.9495
G01 X0.3308 Y0.9545
G01 X0.3268 Y0.9569
G01 X0.3000 Y0.9570
G01 X0.2958 Y0.9551
G01 X0.2934 Y0.9511
G01 X0.2932 Y0.8712
G01 X0.2952 Y0.8663
G01 X0.2977 Y0.8644
G01 X0.3008 Y0.8636
G00 Z0.1000
G00 X0.3508 Y0.8636
G01 F3.00
G01 Z-0.0020
G01 F3.00
G01 X0.3760 Y0.8637
G01 X0.3802 Y0.8657
G01 X0.3826 Y0.8697
G01 X0.3828 Y0.9495
G01 X0.3808 Y0.9545
G01 X0.3768 Y0.9569
G01 X0.3500 Y0.9570
G01 X0.3458 Y0.9551
G01 X0.3434 Y0.9511
G01 X0.3432 Y0.8712
G01 X0.3452 Y0.8663
G01 X0.3477 Y0.8644
G01 X0.3508 Y0.8636
G00 Z0.1000
G00 X0.4008 Y0.8636
G01 F3.00
G01 Z-0.0020
G01 F3.00
G01 X0.4260 Y0.8637
G01 X0.4302 Y0.8657
G01 X0.4326 Y0.8697
G01 X0.4328 Y0.9495
G01 X0.4308 Y0.9545
G01 X0.4268 Y0.9569
G01 X0.4000 Y0.9570
G01 X0.3958 Y0.9551
G01 X0.3934 Y0.9511
G01 X0.3932 Y0.8712
G01 X0.3952 Y0.8663
G01 X0.3977 Y0.8644
G01 X0.4008 Y0.8636
G00 Z0.1000
G00 X0.4508 Y0.8636
G01 F3.00
G01 Z-0.0020
G01 F3.00
G01 X0.4760 Y0.8637
G01 X0.4802 Y0.8657
G01 X0.4826 Y0.8697
G01 X0.4828 Y0.9495
G01 X0.4808 Y0.9545
G01 X0.4768 Y0.9569
G01 X0.4500 Y0.9570
G01 X0.4458 Y0.9551
G01 X0.4434 Y0.9511
G01 X0.4432 Y0.8712
G01 X0.4452 Y0.8663
G01 X0.4477 Y0.8644
G01 X0.4508 Y0.8636
G00 Z0.1000
G00 X0.5008 Y0.8636
G01 F3.00
G01 Z-0.0020
G01 F3.00
G01 X0.5260 Y0.8637
G01 X0.5302 Y0.8657
G01 X0.5326 Y0.8697
G01 X0.5328 Y0.9495
G01 X0.5313 Y0.9539
G01 X0.5268 Y0.9569
G01 X0.5000 Y0.9570
G01 X0.4958 Y0.9551
G01 X0.4934 Y0.9511
G01 X0.4932 Y0.8712
G01 X0.4939 Y0.8682
G01 X0.4958 Y0.8657
G01 X0.5008 Y0.8636
G00 Z0.1000
G00 X0.5508 Y0.8636
G01 F3.00
G01 Z-0.0020
G01 F3.00
G01 X0.5760 Y0.8637
G01 X0.5802 Y0.8657
G01 X0.5826 Y0.8697
G01 X0.5828 Y0.9495
G01 X0.5813 Y0.9539
G01 X0.5768 Y0.9569
G01 X0.5500 Y0.9570
G01 X0.5458 Y0.9551
G01 X0.5434 Y0.9511
G01 X0.5432 Y0.8712
G01 X0.5439 Y0.8682
G01 X0.5458 Y0.8657
G01 X0.5508 Y0.8636
G00 Z0.1000
G00 X0.6008 Y0.8636
G01 F3.00
G01 Z-0.0020
G01 F3.00
G01 X0.6260 Y0.8637
G01 X0.6302 Y0.8657
G01 X0.6326 Y0.8697
G01 X0.6328 Y0.9495
G01 X0.6313 Y0.9539
G01 X0.6268 Y0.9569
G01 X0.6000 Y0.9570
G01 X0.5958 Y0.9551
G01 X0.5934 Y0.9511
G01 X0.5932 Y0.8712
G01 X0.5939 Y0.8682
G01 X0.5958 Y0.8657
G01 X0.6008 Y0.8636
G00 Z0.1000
G00 X0.0240 Y1.0020
G01 F3.00
G01 Z-0.0020
G01 F3.00
G01 X0.0240 Y0.0240
G01 X1.0020 Y0.0240
G01 X1.0020 Y1.0020
G01 X0.0240 Y1.0020
G00 Z0.1000
G00 X0.0020 Y1.0130
G01 F3.00
G01 Z-0.0020
G01 F3.00
G01 X0.0020 Y0.0130
G01 X0.0028 Y0.0088
G01 X0.0052 Y0.0052
G01 X0.0088 Y0.0028
G01 X0.0130 Y0.0020
G01 X1.0130 Y0.0020
G01 X1.0172 Y0.0028
G01 X1.0208 Y0.0052
G01 X1.0232 Y0.0088
G01 X1.0240 Y0.0130
G01 X1.0240 Y1.0130
G01 X1.0232 Y1.0172
G01 X1.0208 Y1.0208
G01 X1.0172 Y1.0232
G01 X1.0130 Y1.0240
G01 X0.0130 Y1.0240
G01 X0.0088 Y1.0232
G01 X0.0052 Y1.0208
G01 X0.0028 Y1.0172
G01 X0.0020 Y1.0130
G00 Z0.1000
M05
G00 Z0.1000
G00 Z2.00
G00 X0Y0
